;FLAVOR:RepRap
;TIME:1049
;Filament used: 0.225751m
;Layer height: 0.1
;Generated with Cura_SteamEngine 2.5.0
M104 S200
M109 S200
G28 ;Home
G1 Z15.0 F6000 ;Move the platform down 15mm
;Prime the extruder
G92 E0
G1 F200 E3
G92 E0
;LAYER_COUNT:88
;LAYER:0
M107
G0 F3600 X4.933 Y4.914 Z0.3
;TYPE:SKIRT
G1 F1800 X5.503 Y4.367 E0.01486
G1 X5.867 Y4.071 E0.02369
G1 X6.282 Y3.753 E0.03352
G1 X6.932 Y3.305 E0.04837
G1 X7.624 Y2.925 E0.06322
G1 X8.039 Y2.739 E0.07177
G1 X8.519 Y2.54 E0.08155
G1 X9.263 Y2.275 E0.09641
G1 X10.029 Y2.086 E0.11125
G1 X10.482 Y2.013 E0.11988
G1 X11.003 Y1.944 E0.12976
G1 X12.027 Y1.876 E0.14907
G1 X48.023 Y1.876 E0.82617
G1 X49.045 Y1.943 E0.84544
G1 X49.567 Y2.012 E0.85534
G1 X50.344 Y2.155 E0.8702
G1 X51.102 Y2.376 E0.88506
G1 X51.538 Y2.542 E0.89383
G1 X52.017 Y2.741 E0.90359
G1 X52.73 Y3.08 E0.91844
G1 X53.405 Y3.49 E0.9333
G1 X53.768 Y3.753 E0.94173
G1 X54.183 Y4.071 E0.95156
G1 X54.785 Y4.582 E0.96642
G1 X55.332 Y5.152 E0.98128
G1 X55.629 Y5.516 E0.99011
G1 X55.948 Y5.932 E0.99997
G1 X56.396 Y6.582 E1.01482
G1 X56.776 Y7.274 E1.02967
G1 X56.964 Y7.693 E1.03831
G1 X57.162 Y8.171 E1.04805
G1 X57.427 Y8.915 E1.0629
G1 X57.615 Y9.682 E1.07776
G1 X57.69 Y10.143 E1.08654
G1 X57.758 Y10.662 E1.09639
G1 X57.824 Y11.675 E1.11548
G1 X57.824 Y13.674 E1.15309
G1 X57.759 Y14.682 E1.17209
G1 X57.691 Y15.204 E1.18199
G1 X57.549 Y15.98 E1.19683
G1 X57.33 Y16.739 E1.21169
G1 X57.162 Y17.181 E1.22058
G1 X56.964 Y17.659 E1.23031
G1 X56.625 Y18.372 E1.24517
G1 X56.216 Y19.048 E1.26003
G1 X55.948 Y19.42 E1.26865
G1 X55.629 Y19.836 E1.27851
G1 X55.117 Y20.438 E1.29338
G1 X54.547 Y20.985 E1.30824
G1 X54.183 Y21.281 E1.31706
G1 X53.768 Y21.599 E1.3269
G1 X53.118 Y22.047 E1.34175
G1 X52.426 Y22.427 E1.3566
G1 X52.017 Y22.611 E1.36503
G1 X51.538 Y22.81 E1.37479
G1 X50.794 Y23.076 E1.38965
G1 X50.027 Y23.265 E1.40451
G1 X49.567 Y23.34 E1.41328
G1 X49.045 Y23.409 E1.42319
G1 X48.023 Y23.476 E1.44245
G1 X12.009 Y23.474 E2.11989
G1 X10.91 Y23.396 E2.14062
G1 X10.39 Y23.322 E2.1505
G1 X9.615 Y23.172 E2.16535
G1 X8.859 Y22.943 E2.18021
G1 X8.44 Y22.779 E2.18867
G1 X7.962 Y22.576 E2.19844
G1 X7.252 Y22.231 E2.21329
G1 X6.262 Y21.585 E2.23552
G1 X5.862 Y21.278 E2.24501
G1 X5.261 Y20.766 E2.25986
G1 X4.714 Y20.196 E2.27472
G1 X4.421 Y19.836 E2.28345
G1 X4.102 Y19.42 E2.29331
G1 X3.654 Y18.77 E2.30816
G1 X3.274 Y18.078 E2.32301
G1 X3.086 Y17.659 E2.33165
G1 X2.888 Y17.181 E2.34138
G1 X2.623 Y16.437 E2.35624
G1 X2.435 Y15.67 E2.3711
G1 X2.362 Y15.224 E2.3796
G1 X2.293 Y14.705 E2.38945
G1 X2.225 Y13.677 E2.40882
G1 X2.225 Y11.678 E2.44643
G1 X2.292 Y10.656 E2.46569
G1 X2.361 Y10.134 E2.4756
G1 X2.504 Y9.357 E2.49046
G1 X2.725 Y8.599 E2.50531
G1 X2.888 Y8.171 E2.51393
G1 X3.086 Y7.693 E2.52366
G1 X3.425 Y6.98 E2.53851
G1 X3.834 Y6.304 E2.55337
G1 X4.102 Y5.932 E2.562
G1 X4.421 Y5.516 E2.57186
G1 X4.933 Y4.914 E2.58672
G0 F3600 X5.238 Y5.174
G1 F1800 X5.795 Y4.644 E2.60118
G1 X6.11 Y4.388 E2.60882
G1 X6.525 Y4.07 E2.61865
G1 X7.159 Y3.635 E2.63312
G1 X7.835 Y3.267 E2.6476
G1 X8.192 Y3.108 E2.65495
G1 X8.672 Y2.909 E2.66472
G1 X9.397 Y2.652 E2.67919
G1 X10.144 Y2.471 E2.69365
G1 X10.534 Y2.409 E2.70108
G1 X11.055 Y2.34 E2.71096
G1 X12.027 Y2.276 E2.72929
G1 X48.023 Y2.276 E3.40639
G1 X48.993 Y2.34 E3.42468
G1 X49.515 Y2.409 E3.43458
G1 X50.271 Y2.549 E3.44904
G1 X51.009 Y2.767 E3.46352
G1 X51.384 Y2.911 E3.47108
G1 X51.863 Y3.11 E3.48083
G1 X52.557 Y3.442 E3.4953
G1 X53.213 Y3.844 E3.50978
G1 X53.525 Y4.07 E3.51702
G1 X53.94 Y4.388 E3.52686
G1 X54.525 Y4.887 E3.54132
G1 X55.056 Y5.444 E3.5558
G1 X55.311 Y5.759 E3.56342
G1 X55.63 Y6.175 E3.57328
G1 X56.066 Y6.809 E3.58776
G1 X56.433 Y7.485 E3.60222
G1 X56.595 Y7.846 E3.60967
G1 X56.793 Y8.324 E3.6194
G1 X57.05 Y9.049 E3.63387
G1 X57.23 Y9.797 E3.64834
G1 X57.293 Y10.195 E3.65592
G1 X57.361 Y10.714 E3.66577
G1 X57.424 Y11.675 E3.68388
G1 X57.424 Y13.674 E3.72148
G1 X57.362 Y14.63 E3.73951
G1 X57.294 Y15.152 E3.74941
G1 X57.155 Y15.908 E3.76387
G1 X56.939 Y16.646 E3.77833
G1 X56.793 Y17.028 E3.78602
G1 X56.595 Y17.506 E3.79576
G1 X56.264 Y18.2 E3.81022
G1 X55.863 Y18.857 E3.8247
G1 X55.63 Y19.177 E3.83214
G1 X55.311 Y19.593 E3.842
G1 X54.812 Y20.178 E3.85647
G1 X54.255 Y20.708 E3.87093
G1 X53.94 Y20.964 E3.87857
G1 X53.525 Y21.282 E3.8884
G1 X52.891 Y21.717 E3.90286
G1 X52.215 Y22.085 E3.91734
G1 X51.863 Y22.242 E3.92459
G1 X51.384 Y22.441 E3.93435
G1 X50.659 Y22.698 E3.94882
G1 X49.912 Y22.88 E3.96328
G1 X49.515 Y22.943 E3.97084
G1 X48.993 Y23.012 E3.98075
G1 X48.023 Y23.076 E3.99903
G1 X12.009 Y23.074 E4.67648
G1 X10.966 Y23 E4.69614
G1 X10.446 Y22.926 E4.70602
G1 X9.692 Y22.778 E4.72048
G1 X8.956 Y22.553 E4.73496
G1 X8.596 Y22.411 E4.74224
G1 X8.118 Y22.208 E4.752
G1 X7.427 Y21.871 E4.76647
G1 X6.506 Y21.267 E4.78718
G1 X6.106 Y20.96 E4.79667
G1 X5.521 Y20.461 E4.81113
G1 X4.991 Y19.904 E4.82559
G1 X4.739 Y19.593 E4.83312
G1 X4.42 Y19.177 E4.84299
G1 X3.984 Y18.543 E4.85746
G1 X3.617 Y17.867 E4.87193
G1 X3.455 Y17.506 E4.87937
G1 X3.257 Y17.028 E4.8891
G1 X3 Y16.303 E4.90357
G1 X2.82 Y15.555 E4.91804
G1 X2.759 Y15.171 E4.92536
G1 X2.69 Y14.652 E4.93521
G1 X2.625 Y13.677 E4.95359
G1 X2.625 Y11.678 E4.99119
G1 X2.689 Y10.708 E5.00948
G1 X2.758 Y10.186 E5.01938
G1 X2.898 Y9.43 E5.03384
G1 X3.116 Y8.692 E5.04832
G1 X3.257 Y8.324 E5.05573
G1 X3.455 Y7.846 E5.06546
G1 X3.786 Y7.152 E5.07993
G1 X4.187 Y6.495 E5.09441
G1 X4.42 Y6.175 E5.10185
G1 X4.739 Y5.759 E5.11171
G1 X5.238 Y5.174 E5.12618
G0 F3600 X5.056 Y6.002
G1 F1800 X5.542 Y5.434 E5.14024
G1 X6.353 Y4.706 E5.16074
G1 X6.768 Y4.388 E5.17057
G1 X7.386 Y3.965 E5.18466
G1 X8.345 Y3.478 E5.20489
G1 X8.825 Y3.279 E5.21467
G1 X9.531 Y3.03 E5.22875
G1 X10.587 Y2.806 E5.24905
G1 X11.108 Y2.737 E5.25894
G1 X12.027 Y2.676 E5.27626
G1 X48.023 Y2.676 E5.95337
G1 X48.94 Y2.736 E5.97066
G1 X49.462 Y2.805 E5.98056
G1 X50.198 Y2.943 E5.99465
G1 X51.231 Y3.281 E6.01509
G1 X51.71 Y3.48 E6.02485
G1 X52.384 Y3.803 E6.03891
G1 X53.282 Y4.388 E6.05907
G1 X53.697 Y4.706 E6.0689
G1 X54.265 Y5.192 E6.08296
G1 X54.994 Y6.002 E6.10346
G1 X55.313 Y6.418 E6.11332
G1 X55.736 Y7.036 E6.12741
G1 X56.225 Y7.999 E6.14773
G1 X56.423 Y8.477 E6.15746
G1 X56.672 Y9.183 E6.17154
G1 X56.897 Y10.247 E6.192
G1 X56.965 Y10.766 E6.20184
G1 X57.024 Y11.675 E6.21898
G1 X57.024 Y13.674 E6.25658
G1 X56.965 Y14.578 E6.27362
G1 X56.897 Y15.1 E6.28352
G1 X56.761 Y15.836 E6.2976
G1 X56.423 Y16.875 E6.31816
G1 X56.225 Y17.353 E6.32789
G1 X55.902 Y18.028 E6.34196
G1 X55.313 Y18.934 E6.36229
G1 X54.994 Y19.35 E6.37215
G1 X54.508 Y19.918 E6.38621
G1 X53.697 Y20.646 E6.40671
G1 X53.282 Y20.964 E6.41655
G1 X52.664 Y21.387 E6.43064
G1 X51.71 Y21.872 E6.45077
G1 X51.231 Y22.071 E6.46052
G1 X50.525 Y22.321 E6.47461
G1 X49.462 Y22.547 E6.49505
G1 X48.94 Y22.616 E6.50496
G1 X48.023 Y22.676 E6.52225
G1 X12.009 Y22.674 E7.19969
G1 X11.023 Y22.604 E7.21828
G1 X10.503 Y22.53 E7.22816
G1 X9.769 Y22.385 E7.24224
G1 X8.753 Y22.043 E7.2624
G1 X8.275 Y21.84 E7.27217
G1 X7.603 Y21.511 E7.28624
G1 X6.749 Y20.95 E7.30547
G1 X6.349 Y20.643 E7.31495
G1 X5.781 Y20.156 E7.32902
G1 X5.056 Y19.35 E7.34942
G1 X4.737 Y18.934 E7.35928
G1 X4.314 Y18.316 E7.37336
G1 X3.825 Y17.353 E7.39368
G1 X3.627 Y16.875 E7.40341
G1 X3.378 Y16.169 E7.4175
G1 X3.155 Y15.119 E7.43769
G1 X3.086 Y14.6 E7.44754
G1 X3.025 Y13.677 E7.46494
G1 X3.025 Y11.678 E7.50254
G1 X3.085 Y10.761 E7.51982
G1 X3.154 Y10.239 E7.52973
G1 X3.292 Y9.503 E7.54381
G1 X3.627 Y8.477 E7.56412
G1 X3.825 Y7.999 E7.57385
G1 X4.148 Y7.324 E7.58792
G1 X4.737 Y6.418 E7.60825
G1 X5.056 Y6.002 E7.61811
G0 F3600 X5.374 Y6.246
G1 F1800 X5.847 Y5.695 E7.63177
G1 X6.597 Y5.023 E7.65072
G1 X7.012 Y4.705 E7.66055
G1 X7.612 Y4.296 E7.67421
G1 X8.498 Y3.847 E7.69289
G1 X8.978 Y3.648 E7.70267
G1 X9.664 Y3.407 E7.71634
G1 X10.639 Y3.202 E7.73509
G1 X11.16 Y3.133 E7.74497
G1 X12.027 Y3.076 E7.76132
G1 X48.023 Y3.076 E8.43842
G1 X48.888 Y3.133 E8.45473
G1 X49.41 Y3.202 E8.46463
G1 X50.124 Y3.337 E8.4783
G1 X51.077 Y3.65 E8.49717
G1 X51.556 Y3.849 E8.50693
G1 X52.211 Y4.164 E8.5206
G1 X53.038 Y4.705 E8.53919
G1 X53.453 Y5.023 E8.54902
G1 X54.005 Y5.496 E8.5627
G1 X54.676 Y6.246 E8.58163
G1 X54.995 Y6.662 E8.59149
G1 X55.405 Y7.262 E8.60516
G1 X55.856 Y8.152 E8.62392
G1 X56.054 Y8.63 E8.63366
G1 X56.294 Y9.316 E8.64733
G1 X56.5 Y10.299 E8.66622
G1 X56.568 Y10.818 E8.67607
G1 X56.624 Y11.675 E8.69222
G1 X56.624 Y13.674 E8.72982
G1 X56.569 Y14.527 E8.7459
G1 X56.501 Y15.049 E8.7558
G1 X56.367 Y15.763 E8.76947
G1 X56.054 Y16.722 E8.78845
G1 X55.856 Y17.2 E8.79818
G1 X55.541 Y17.855 E8.81185
G1 X54.995 Y18.69 E8.83062
G1 X54.676 Y19.106 E8.84048
G1 X54.203 Y19.657 E8.85414
G1 X53.453 Y20.329 E8.87308
G1 X53.038 Y20.647 E8.88291
G1 X52.438 Y21.056 E8.89657
G1 X51.556 Y21.503 E8.91517
G1 X51.077 Y21.702 E8.92493
G1 X50.392 Y21.943 E8.93859
G1 X49.41 Y22.15 E8.95747
G1 X48.888 Y22.219 E8.96737
G1 X48.023 Y22.276 E8.98368
G1 X12.009 Y22.274 E9.66112
G1 X11.079 Y22.208 E9.67866
G1 X10.559 Y22.134 E9.68854
G1 X9.847 Y21.992 E9.7022
G1 X8.909 Y21.675 E9.72082
G1 X8.431 Y21.472 E9.73059
G1 X7.779 Y21.152 E9.74425
G1 X6.993 Y20.633 E9.76197
G1 X6.593 Y20.326 E9.77145
G1 X6.042 Y19.852 E9.78513
G1 X5.374 Y19.106 E9.80396
G1 X5.055 Y18.69 E9.81382
G1 X4.645 Y18.09 E9.82749
G1 X4.194 Y17.2 E9.84626
G1 X3.996 Y16.722 E9.85599
G1 X3.756 Y16.036 E9.86966
G1 X3.552 Y15.066 E9.88831
G1 X3.483 Y14.547 E9.89816
G1 X3.425 Y13.677 E9.91456
G1 X3.425 Y11.678 E9.95216
G1 X3.482 Y10.813 E9.96847
G1 X3.551 Y10.291 E9.97837
G1 X3.686 Y9.577 E9.99204
G1 X3.996 Y8.63 E10.01079
G1 X4.194 Y8.152 E10.02052
G1 X4.509 Y7.497 E10.03419
G1 X5.055 Y6.662 E10.05296
G1 X5.374 Y6.246 E10.06282
G0 F3600 X5.691 Y6.489
G1 F1800 X6.15 Y5.956 E10.07605
G1 X6.84 Y5.341 E10.09344
G1 X7.255 Y5.023 E10.10327
G1 X7.837 Y4.627 E10.11651
G1 X8.652 Y4.217 E10.13367
G1 X9.132 Y4.018 E10.14345
G1 X9.796 Y3.785 E10.15668
G1 X10.692 Y3.599 E10.1739
G1 X11.213 Y3.53 E10.18378
G1 X12.027 Y3.476 E10.19913
G1 X48.023 Y3.476 E10.87623
G1 X48.835 Y3.529 E10.89154
G1 X49.357 Y3.598 E10.90145
G1 X50.049 Y3.73 E10.9147
G1 X50.924 Y4.019 E10.93203
G1 X51.403 Y4.218 E10.94179
G1 X52.036 Y4.525 E10.95502
G1 X52.795 Y5.023 E10.9721
G1 X53.21 Y5.341 E10.98193
G1 X53.744 Y5.8 E10.99518
G1 X54.359 Y6.489 E11.01255
G1 X54.678 Y6.905 E11.02241
G1 X55.074 Y7.487 E11.03565
G1 X55.486 Y8.305 E11.05288
G1 X55.684 Y8.783 E11.06261
G1 X55.916 Y9.448 E11.07586
G1 X56.103 Y10.351 E11.09321
G1 X56.171 Y10.87 E11.10305
G1 X56.224 Y11.675 E11.11823
G1 X56.224 Y13.674 E11.15583
G1 X56.172 Y14.475 E11.17093
G1 X56.104 Y14.997 E11.18083
G1 X55.974 Y15.689 E11.19408
G1 X55.684 Y16.569 E11.21151
G1 X55.486 Y17.047 E11.22124
G1 X55.18 Y17.681 E11.23448
G1 X54.678 Y18.447 E11.25171
G1 X54.359 Y18.863 E11.26157
G1 X53.9 Y19.396 E11.2748
G1 X53.21 Y20.011 E11.29219
G1 X52.795 Y20.329 E11.30202
G1 X52.213 Y20.725 E11.31526
G1 X51.403 Y21.134 E11.33233
G1 X50.924 Y21.333 E11.34209
G1 X50.259 Y21.565 E11.35534
G1 X49.357 Y21.754 E11.37267
G1 X48.835 Y21.823 E11.38258
G1 X48.023 Y21.876 E11.39788
G1 X12.009 Y21.874 E12.07533
G1 X11.135 Y21.812 E12.09181
G1 X10.615 Y21.738 E12.10169
G1 X9.925 Y21.6 E12.11493
G1 X9.065 Y21.307 E12.13202
G1 X8.587 Y21.104 E12.14178
G1 X7.956 Y20.792 E12.15503
G1 X7.236 Y20.315 E12.17127
G1 X6.836 Y20.008 E12.18076
G1 X6.303 Y19.549 E12.19399
G1 X5.691 Y18.863 E12.21128
G1 X5.372 Y18.447 E12.22114
G1 X4.976 Y17.865 E12.23438
G1 X4.564 Y17.047 E12.25161
G1 X4.366 Y16.569 E12.26134
G1 X4.134 Y15.904 E12.27459
G1 X3.948 Y15.013 E12.29171
G1 X3.879 Y14.494 E12.30156
G1 X3.825 Y13.677 E12.31696
G1 X3.825 Y11.678 E12.35457
G1 X3.878 Y10.866 E12.36987
G1 X3.947 Y10.344 E12.37978
G1 X4.079 Y9.652 E12.39303
G1 X4.366 Y8.783 E12.41024
G1 X4.564 Y8.305 E12.41998
G1 X4.87 Y7.671 E12.43322
G1 X5.372 Y6.905 E12.45045
G1 X5.691 Y6.489 E12.46031
G0 F3600 X6.008 Y6.733
G1 F1800 X6.454 Y6.218 E12.47312
G1 X7.083 Y5.658 E12.48896
G1 X7.498 Y5.34 E12.4988
G1 X8.062 Y4.958 E12.51161
G1 X8.805 Y4.586 E12.52724
G1 X9.285 Y4.387 E12.53702
G1 X9.928 Y4.164 E12.54982
G1 X10.745 Y3.995 E12.56551
G1 X11.266 Y3.926 E12.5754
G1 X12.027 Y3.876 E12.58974
G1 X48.023 Y3.876 E13.26685
G1 X48.783 Y3.926 E13.28118
G1 X49.305 Y3.995 E13.29108
G1 X49.974 Y4.124 E13.3039
G1 X50.77 Y4.389 E13.31968
G1 X51.249 Y4.588 E13.32943
G1 X51.862 Y4.886 E13.34226
G1 X52.552 Y5.34 E13.35779
G1 X52.967 Y5.658 E13.36763
G1 X53.482 Y6.103 E13.38043
G1 X54.042 Y6.733 E13.39629
G1 X54.361 Y7.149 E13.40615
G1 X54.742 Y7.712 E13.41893
G1 X55.116 Y8.458 E13.43463
G1 X55.314 Y8.936 E13.44436
G1 X55.538 Y9.58 E13.45719
G1 X55.707 Y10.403 E13.47299
G1 X55.775 Y10.922 E13.48284
G1 X55.824 Y11.675 E13.49703
G1 X55.824 Y13.674 E13.53464
G1 X55.775 Y14.423 E13.54876
G1 X55.707 Y14.945 E13.55866
G1 X55.58 Y15.614 E13.57147
G1 X55.314 Y16.416 E13.58736
G1 X55.116 Y16.894 E13.59709
G1 X54.819 Y17.506 E13.60989
G1 X54.361 Y18.203 E13.62558
G1 X54.042 Y18.619 E13.63544
G1 X53.596 Y19.134 E13.64825
G1 X52.967 Y19.694 E13.6641
G1 X52.552 Y20.012 E13.67393
G1 X51.988 Y20.394 E13.68674
G1 X51.249 Y20.764 E13.70229
G1 X50.77 Y20.963 E13.71205
G1 X50.127 Y21.187 E13.72486
G1 X49.305 Y21.357 E13.74064
G1 X48.783 Y21.426 E13.75055
G1 X48.023 Y21.476 E13.76488
G1 X12.009 Y21.474 E14.44232
G1 X11.192 Y21.416 E14.45773
G1 X10.672 Y21.342 E14.46761
G1 X10.005 Y21.207 E14.48041
G1 X9.222 Y20.939 E14.49598
G1 X8.744 Y20.736 E14.50574
G1 X8.134 Y20.433 E14.51856
G1 X7.48 Y19.998 E14.53333
G1 X7.08 Y19.691 E14.54282
G1 X6.565 Y19.246 E14.55562
G1 X6.008 Y18.619 E14.57139
G1 X5.689 Y18.203 E14.58126
G1 X5.308 Y17.64 E14.59404
G1 X4.934 Y16.894 E14.60974
G1 X4.736 Y16.416 E14.61947
G1 X4.512 Y15.772 E14.6323
G1 X4.345 Y14.96 E14.64789
G1 X4.276 Y14.441 E14.65774
G1 X4.225 Y13.677 E14.67214
G1 X4.225 Y11.678 E14.70975
G1 X4.275 Y10.918 E14.72407
G1 X4.344 Y10.396 E14.73398
G1 X4.473 Y9.727 E14.74679
G1 X4.736 Y8.936 E14.76247
G1 X4.934 Y8.458 E14.77221
G1 X5.231 Y7.846 E14.785
G1 X5.689 Y7.149 E14.80069
G1 X6.008 Y6.733 E14.81055
G0 F3600 X6.326 Y6.976
G1 F1800 X6.757 Y6.48 E14.82291
G1 X7.327 Y5.976 E14.83722
G1 X7.742 Y5.658 E14.84706
G1 X8.286 Y5.291 E14.8594
G1 X8.958 Y4.956 E14.87353
G1 X9.438 Y4.757 E14.8833
G1 X10.059 Y4.542 E14.89566
G1 X10.797 Y4.392 E14.90983
G1 X11.318 Y4.323 E14.91972
G1 X12.027 Y4.276 E14.93308
G1 X48.023 Y4.276 E15.61019
G1 X48.731 Y4.323 E15.62353
G1 X49.253 Y4.392 E15.63344
G1 X49.897 Y4.517 E15.64578
G1 X50.617 Y4.758 E15.66006
G1 X51.096 Y4.957 E15.66982
G1 X51.686 Y5.246 E15.68217
G1 X52.308 Y5.658 E15.69621
G1 X52.723 Y5.976 E15.70604
G1 X53.22 Y6.406 E15.71841
G1 X53.724 Y6.976 E15.73272
G1 X54.043 Y7.392 E15.74258
G1 X54.41 Y7.937 E15.75494
G1 X54.747 Y8.611 E15.76911
G1 X54.945 Y9.089 E15.77885
G1 X55.159 Y9.711 E15.79122
G1 X55.31 Y10.454 E15.80548
G1 X55.378 Y10.973 E15.81533
G1 X55.424 Y11.675 E15.82856
G1 X55.424 Y13.674 E15.86616
G1 X55.379 Y14.372 E15.87932
G1 X55.311 Y14.894 E15.88922
G1 X55.186 Y15.539 E15.90158
G1 X54.945 Y16.263 E15.91593
G1 X54.747 Y16.741 E15.92567
G1 X54.459 Y17.331 E15.93802
G1 X54.043 Y17.96 E15.9522
G1 X53.724 Y18.376 E15.96206
G1 X53.293 Y18.872 E15.97442
G1 X52.723 Y19.376 E15.98874
G1 X52.308 Y19.694 E15.99857
G1 X51.764 Y20.061 E16.01091
G1 X51.096 Y20.395 E16.02496
G1 X50.617 Y20.594 E16.03472
G1 X49.996 Y20.808 E16.04707
G1 X49.253 Y20.96 E16.06134
G1 X48.731 Y21.029 E16.07125
G1 X48.023 Y21.076 E16.08459
G1 X12.009 Y21.074 E16.76204
G1 X11.248 Y21.02 E16.77639
G1 X10.728 Y20.946 E16.78627
G1 X10.085 Y20.814 E16.79861
G1 X9.378 Y20.57 E16.81268
G1 X8.9 Y20.367 E16.82245
G1 X8.312 Y20.074 E16.83481
G1 X7.723 Y19.681 E16.84813
G1 X7.323 Y19.374 E16.85761
G1 X6.827 Y18.943 E16.86997
G1 X6.326 Y18.376 E16.88421
G1 X6.007 Y17.96 E16.89407
G1 X5.64 Y17.415 E16.90643
G1 X5.303 Y16.741 E16.9206
G1 X5.105 Y16.263 E16.93033
G1 X4.891 Y15.641 E16.94271
G1 X4.741 Y14.908 E16.95678
G1 X4.672 Y14.389 E16.96663
G1 X4.625 Y13.677 E16.98005
G1 X4.625 Y11.678 E17.01765
G1 X4.672 Y10.97 E17.031
G1 X4.741 Y10.448 E17.04091
G1 X4.866 Y9.804 E17.05325
G1 X5.105 Y9.089 E17.06743
G1 X5.303 Y8.611 E17.07716
G1 X5.591 Y8.021 E17.08951
G1 X6.007 Y7.392 E17.10369
